icon-themes/sifr_svg/cmd/sc_datafilterspecialfilter.svg

<svg viewBox="0 0 16 16" xmlns="http://www.w3.org/2000/svg"><path d="m1 1v.4121094.5878906c0 .30945.1.55232.28125.75l.8828125 1.25h1.6152344l.9394531-1.25c.19095-.1981755.28125-.45.28125-.75v-.5878906-.4121094h-1s-.528449.12983-.71875.3125l-.28125.3710938-.28125-.3710938c-.190288-.18267-.461858-.3125-.71875-.3125zm5 0v.4121094.5878906c0 .30945.1.55232.28125.75l.8828125 1.25h1.6152344l.9394531-1.25c.19095-.1981755.28125-.45.28125-.75v-.5878906-.4121094h-1s-.528449.12983-.71875.3125l-.28125.3710938-.28125-.3710938c-.190288-.18267-.461858-.3125-.71875-.3125zm5 0v.4121094.5878906c0 .30945.1.55232.28125.75l.882812 1.25h1.615235l.939453-1.25c.19095-.1981755.28125-.45.28125-.75v-.5878906-.4121094h-1s-.528449.12983-.71875.3125l-.28125.3710938-.28125-.3710938c-.190288-.18267-.461858-.3125-.71875-.3125zm-7 4c-.55226 0-1 .44774-1 1h1 8 1c-.00005-.55226-.44774-1-1-1zm-1 2c.0113.84636-.0000006.8326756.7304688 1.6660156l2.2695312 2.3339844h2.0820312c.3769207-1.1500133 1.9832908-1.9812307 3.8613278-1.9980469l.326172-.3359375c.730469-.83334.730469-.8326856.730469-1.6660156zm9 3a3 2 0 0 0 -3 2v2a3 2 0 0 0 3 2 3 2 0 0 0 3-2v-2a3 2 0 0 0 -3-2zm0 1a2 1 0 0 1 2 1 2 1 0 0 1 -2 1 2 1 0 0 1 -2-1 2 1 0 0 1 2-1zm-2 2.488281a3 2 0 0 0 2 .511719 3 2 0 0 0 2-.511719v.511719a2 1 0 0 1 -2 1 2 1 0 0 1 -2-1z" fill="#555753"/></svg>

<svg xmlns="http://www.w3.org/2000/svg" viewBox="0 0 16 16">
  <path
     style="fill:#555753"
     d="M 1 1 L 1 1.4121094 L 1 2 C 1 2.30945 1.1 2.55232 1.28125 2.75 L 2.1640625 4 L 3.7792969 4 L 4.71875 2.75 C 4.9097 2.5518245 5 2.3 5 2 L 5 1.4121094 L 5 1 L 4 1 C 4 1 3.471551 1.12983 3.28125 1.3125 L 3 1.6835938 L 2.71875 1.3125 C 2.528462 1.12983 2.256892 1 2 1 L 1 1 z M 6 1 L 6 1.4121094 L 6 2 C 6 2.30945 6.1 2.55232 6.28125 2.75 L 7.1640625 4 L 8.7792969 4 L 9.71875 2.75 C 9.9097 2.5518245 10 2.3 10 2 L 10 1.4121094 L 10 1 L 9 1 C 9 1 8.471551 1.12983 8.28125 1.3125 L 8 1.6835938 L 7.71875 1.3125 C 7.528462 1.12983 7.256892 1 7 1 L 6 1 z M 11 1 L 11 1.4121094 L 11 2 C 11 2.30945 11.1 2.55232 11.28125 2.75 L 12.164062 4 L 13.779297 4 L 14.71875 2.75 C 14.9097 2.5518245 15 2.3 15 2 L 15 1.4121094 L 15 1 L 14 1 C 14 1 13.471551 1.12983 13.28125 1.3125 L 13 1.6835938 L 12.71875 1.3125 C 12.528462 1.12983 12.256892 1 12 1 L 11 1 z M 4 5 C 3.44774 5 3 5.44774 3 6 L 4 6 L 12 6 L 13 6 C 12.99995 5.44774 12.55226 5 12 5 L 4 5 z M 3 7 C 3.0113 7.84636 2.9999994 7.8326756 3.7304688 8.6660156 L 6 11 L 8.0820312 11 C 8.4589519 9.8499867 10.065322 9.0187693 11.943359 9.0019531 L 12.269531 8.6660156 C 13 7.8326756 13 7.83333 13 7 L 3 7 z M 12 10 A 3 2 0 0 0 9 12 L 9 14 A 3 2 0 0 0 12 16 A 3 2 0 0 0 15 14 L 15 12 A 3 2 0 0 0 12 10 z M 12 11 A 2 1 0 0 1 14 12 A 2 1 0 0 1 12 13 A 2 1 0 0 1 10 12 A 2 1 0 0 1 12 11 z M 10 13.488281 A 3 2 0 0 0 12 14 A 3 2 0 0 0 14 13.488281 L 14 14 A 2 1 0 0 1 12 15 A 2 1 0 0 1 10 14 L 10 13.488281 z "
     />
</svg>
